polaris-icons/icons/new-icons/AddNoteMajor.svg

<svg width="20" height="20" viewBox="0 0 20 20" fill="none" xmlns="http://www.w3.org/2000/svg">
<path d="M3.5 6.25C3.5 4.73122 4.73122 3.5 6.25 3.5H13.75C15.2688 3.5 16.5 4.73122 16.5 6.25V10.77C16.5 11.1842 16.1642 11.52 15.75 11.52C15.3358 11.52 15 11.1842 15 10.77V6.25C15 5.55964 14.4404 5 13.75 5H6.25C5.55964 5 5 5.55964 5 6.25V13.75C5 14.4404 5.55964 15 6.25 15H11.17C11.5842 15 11.92 15.3358 11.92 15.75C11.92 16.1642 11.5842 16.5 11.17 16.5H6.25C4.73122 16.5 3.5 15.2688 3.5 13.75V6.25Z" fill="#4A4A4A"/>
<path d="M15.75 12.5C16.1642 12.5 16.5 12.8358 16.5 13.25V14.5H17.75C18.1642 14.5 18.5 14.8358 18.5 15.25C18.5 15.6642 18.1642 16 17.75 16H16.5V17.25C16.5 17.6642 16.1642 18 15.75 18C15.3358 18 15 17.6642 15 17.25V16H13.75C13.3358 16 13 15.6642 13 15.25C13 14.8358 13.3358 14.5 13.75 14.5H15V13.25C15 12.8358 15.3358 12.5 15.75 12.5Z" fill="#4A4A4A"/>
<path d="M6.55 7.25C6.55 6.8634 6.8634 6.55 7.25 6.55H12.75C13.1366 6.55 13.45 6.8634 13.45 7.25C13.45 7.6366 13.1366 7.95 12.75 7.95H7.25C6.8634 7.95 6.55 7.6366 6.55 7.25Z" fill="#4A4A4A"/>
<path d="M7 9.05C6.6134 9.05 6.3 9.3634 6.3 9.75C6.3 10.1366 6.6134 10.45 7 10.45H9.25C9.6366 10.45 9.95 10.1366 9.95 9.75C9.95 9.3634 9.6366 9.05 9.25 9.05H7Z" fill="#4A4A4A"/>
</svg>

<svg viewBox="0 0 20 20" xmlns="http://www.w3.org/2000/svg"><path d="M3.5 6.25a2.75 2.75 0 0 1 2.75-2.75h7.5a2.75 2.75 0 0 1 2.75 2.75v4.52a.75.75 0 0 1-1.5 0v-4.52c0-.69-.56-1.25-1.25-1.25h-7.5c-.69 0-1.25.56-1.25 1.25v7.5c0 .69.56 1.25 1.25 1.25h4.92a.75.75 0 0 1 0 1.5h-4.92a2.75 2.75 0 0 1-2.75-2.75v-7.5Z" fill="#5C5F62"/><path d="M15.75 12.5a.75.75 0 0 1 .75.75v1.25h1.25a.75.75 0 0 1 0 1.5h-1.25v1.25a.75.75 0 0 1-1.5 0v-1.25h-1.25a.75.75 0 0 1 0-1.5h1.25v-1.25a.75.75 0 0 1 .75-.75Z" fill="#5C5F62"/><path d="M6.55 7.25a.7.7 0 0 1 .7-.7h5.5a.7.7 0 1 1 0 1.4h-5.5a.7.7 0 0 1-.7-.7Z" fill="#5C5F62"/><path d="M7 9.05a.7.7 0 1 0 0 1.4h2.25a.7.7 0 1 0 0-1.4h-2.25Z" fill="#5C5F62"/></svg>
